Newaita-dark/actions/scalable/view-left-close.svg

<?xml version="1.0" encoding="UTF-8"?>
<svg xmlns="http://www.w3.org/2000/svg" xmlns:xlink="http://www.w3.org/1999/xlink" width="512pt" height="512pt" viewBox="0 0 512 512" version="1.1">
<g id="surface1">
<path style=" stroke:none;fill-rule:nonzero;fill:rgb(74.117649%,74.117649%,74.117649%);fill-opacity:1;" d="M 433.957031 25.167969 C 457.414062 25.167969 476.296875 44.050781 476.296875 67.507812 L 476.296875 448.542969 C 476.296875 471.996094 457.414062 490.878906 433.957031 490.878906 L 74.089844 490.878906 C 50.636719 490.878906 31.753906 471.996094 31.753906 448.542969 L 31.753906 67.507812 C 31.753906 44.050781 50.636719 25.167969 74.089844 25.167969 Z M 423.375 56.921875 L 296.363281 56.921875 L 296.363281 459.125 L 423.375 459.125 C 435.101562 459.125 444.542969 449.6875 444.542969 437.957031 L 444.542969 78.089844 C 444.542969 66.363281 435.101562 56.921875 423.375 56.921875 Z M 264.609375 56.921875 L 84.675781 56.921875 C 72.949219 56.921875 63.507812 66.363281 63.507812 78.089844 L 63.507812 437.957031 C 63.507812 449.6875 72.949219 459.125 84.675781 459.125 L 264.609375 459.125 Z M 264.609375 56.921875 "/>
<path style=" stroke:none;fill-rule:nonzero;fill:rgb(93.725491%,32.549021%,31.37255%);fill-opacity:1;" d="M 216.980469 242.148438 L 111.136719 242.148438 C 102.367188 242.148438 95.257812 248.644531 95.257812 256.65625 L 95.257812 259.390625 C 95.257812 267.40625 102.367188 273.902344 111.136719 273.902344 L 216.980469 273.902344 C 225.746094 273.902344 232.855469 267.40625 232.855469 259.390625 L 232.855469 256.65625 C 232.855469 248.644531 225.746094 242.148438 216.980469 242.148438 Z M 216.980469 242.148438 "/>
</g>
</svg>

<svg xmlns="http://www.w3.org/2000/svg" width="512pt" height="512pt" viewBox="0 0 512 512"><path d="M433.957 25.168c23.457 0 42.34 18.883 42.34 42.34v381.035c0 23.453-18.883 42.336-42.34 42.336H74.09c-23.453 0-42.336-18.883-42.336-42.336V67.508c0-23.457 18.883-42.34 42.336-42.34zm-10.582 31.754H296.363v402.203h127.012a21.12 21.12 0 0 0 21.168-21.168V78.09a21.122 21.122 0 0 0-21.168-21.168zm-158.766 0H84.676A21.122 21.122 0 0 0 63.508 78.09v359.867a21.12 21.12 0 0 0 21.168 21.168h179.933zm0 0" fill="#bdbdbd"/><path d="M216.98 242.148H111.137c-8.77 0-15.88 6.497-15.88 14.508v2.735c0 8.015 7.11 14.511 15.88 14.511H216.98c8.766 0 15.875-6.496 15.875-14.511v-2.735c0-8.011-7.109-14.508-15.875-14.508zm0 0" fill="#ef5350"/></svg>
